packages/react-icons/icons/warning.svg

<svg width="24" height="24" viewBox="0 0 24 24" xmlns="http://www.w3.org/2000/svg"><path fill-rule="evenodd" clip-rule="evenodd" d="M11.9996 3.0625C12.3155 3.0625 12.6082 3.22812 12.771 3.49888L21.7973 18.5173C21.9644 18.7953 21.9689 19.1417 21.8092 19.4241C21.6495 19.7064 21.3502 19.8809 21.0259 19.8809H2.97324C2.64888 19.8809 2.34961 19.7064 2.1899 19.4241C2.03019 19.1417 2.03475 18.7953 2.20184 18.5173L11.2282 3.49888C11.3909 3.22812 11.6837 3.0625 11.9996 3.0625ZM11.9996 5.70961L4.5642 18.0809H19.4349L11.9996 5.70961ZM11.9999 8.73292C12.4969 8.73292 12.8999 9.13586 12.8999 9.63292V13.8066C12.8999 14.3036 12.4969 14.7066 11.9999 14.7066C11.5028 14.7066 11.0999 14.3036 11.0999 13.8066V9.63292C11.0999 9.13586 11.5028 8.73292 11.9999 8.73292ZM12.0004 16.9374C12.494 16.9374 12.8942 16.5372 12.8942 16.0436C12.8942 15.55 12.494 15.1499 12.0004 15.1499C11.5068 15.1499 11.1067 15.55 11.1067 16.0436C11.1067 16.5372 11.5068 16.9374 12.0004 16.9374Z"/></svg>

<svg xmlns="http://www.w3.org/2000/svg" width="24" height="24"><path fill-rule="evenodd" d="M12 3.063a.9.9 0 0 1 .771.436l9.026 15.018a.9.9 0 0 1-.771 1.364H2.973a.9.9 0 0 1-.771-1.364L11.228 3.5A.9.9 0 0 1 12 3.062Zm0 2.647L4.564 18.08h14.87L12 5.71Zm0 3.023a.9.9 0 0 1 .9.9v4.174a.9.9 0 0 1-1.8 0V9.633a.9.9 0 0 1 .9-.9Zm0 8.204a.894.894 0 1 0 0-1.787.894.894 0 0 0 0 1.787Z" clip-rule="evenodd"/></svg>
